src/assets/filled/Strongbox.svg

<?xml version="1.0" encoding="UTF-8"?>
<svg width="24" height="24" viewBox="0 0 24 24" xmlns="http://www.w3.org/2000/svg">
 <path d="m13.25 12.58v1.98c0 0.69-0.56 1.25-1.25 1.25s-1.25-0.56-1.25-1.25v-1.98c-0.36-0.22-0.64-0.54-0.84-0.92h-6.91c-0.55 0-1 0.45-1 1v3.53c0 3.21 2.6 5.81 5.81 5.81h8.37c3.22 0 5.82-2.6 5.82-5.81v-3.53c0-0.55-0.45-1-1-1h-6.91c-0.2 0.38-0.48 0.7-0.84 0.92z"/>
 <path d="m16.19 2h-8.38c-3.21 0-5.81 2.6-5.81 5.81v1.35c0 0.55 0.45 1 1 1h6.67c0.23-1.32 1.54-2.26 2.97-1.88 0.8 0.21 1.45 0.86 1.66 1.66 0.02 0.07 0.02 0.15 0.03 0.22h6.67c0.55 0 1-0.45 1-1v-1.35c0-3.21-2.6-5.81-5.81-5.81z"/>
</svg>

<svg width="24" height="24" viewBox="0 0 24 24"  xmlns="http://www.w3.org/2000/svg">
<path d="M13.25 12.58V14.56C13.25 15.25 12.69 15.81 12 15.81C11.31 15.81 10.75 15.25 10.75 14.56V12.58C10.39 12.36 10.11 12.04 9.91 11.66H3C2.45 11.66 2 12.11 2 12.66V16.19C2 19.4 4.6 22 7.81 22H16.18C19.4 22 22 19.4 22 16.19V12.66C22 12.11 21.55 11.66 21 11.66H14.09C13.89 12.04 13.61 12.36 13.25 12.58Z" />
<path d="M16.19 2H7.81C4.6 2 2 4.6 2 7.81V9.16C2 9.71 2.45 10.16 3 10.16H9.67C9.9 8.84 11.21 7.9 12.64 8.28C13.44 8.49 14.09 9.14 14.3 9.94C14.32 10.01 14.32 10.09 14.33 10.16H21C21.55 10.16 22 9.71 22 9.16V7.81C22 4.6 19.4 2 16.19 2Z" />
</svg>
